X: 20957
T: Juan Y Jagged Keeir
R: reel
M: 4/4
K: Eminor
GFGA BBBA|GFGA BE E2|EFGA BcBA|GEFG E2 E2|
EFGA B2 B2|EFGA B2 B2|GFGA BcBA|GEFG E2 E2||

